Sources/FrostedUI/Resources/Icons.xcassets/grid32.imageset/grid-32.svg

<svg width="32" height="32" viewBox="0 0 32 32" fill="none" xmlns="http://www.w3.org/2000/svg" data-fui-icon="true">
  <path
    d="M11.1504 17.5C13.0002 17.5002 14.4998 18.9998 14.5 20.8496V25.6504C14.4998 27.5002 13.0002 28.9998 11.1504 29H6.34961C4.49977 28.9998 3.00021 27.5002 3 25.6504V20.8496C3.00021 18.9998 4.49977 17.5002 6.34961 17.5H11.1504ZM25.6504 17.5C27.5002 17.5002 28.9998 18.9998 29 20.8496V25.6504C28.9998 27.5002 27.5002 28.9998 25.6504 29H20.8496C18.9998 28.9998 17.5002 27.5002 17.5 25.6504V20.8496C17.5002 18.9998 18.9998 17.5002 20.8496 17.5H25.6504ZM6.34961 19C5.32819 19.0002 4.50021 19.8282 4.5 20.8496V25.6504C4.50021 26.6718 5.32819 27.4998 6.34961 27.5H11.1504C12.1718 27.4998 12.9998 26.6718 13 25.6504V20.8496C12.9998 19.8282 12.1718 19.0002 11.1504 19H6.34961ZM20.8496 19C19.8282 19.0002 19.0002 19.8282 19 20.8496V25.6504C19.0002 26.6718 19.8282 27.4998 20.8496 27.5H25.6504C26.6718 27.4998 27.4998 26.6718 27.5 25.6504V20.8496C27.4998 19.8282 26.6718 19.0002 25.6504 19H20.8496ZM11.1504 3C13.0002 3.00021 14.4998 4.49977 14.5 6.34961V11.1504C14.4998 13.0002 13.0002 14.4998 11.1504 14.5H6.34961C4.49977 14.4998 3.00021 13.0002 3 11.1504V6.34961C3.00021 4.49977 4.49977 3.00021 6.34961 3H11.1504ZM25.6504 3C27.5002 3.00021 28.9998 4.49977 29 6.34961V11.1504C28.9998 13.0002 27.5002 14.4998 25.6504 14.5H20.8496C18.9998 14.4998 17.5002 13.0002 17.5 11.1504V6.34961C17.5002 4.49977 18.9998 3.00021 20.8496 3H25.6504ZM6.34961 4.5C5.32819 4.50021 4.50021 5.32819 4.5 6.34961V11.1504C4.50021 12.1718 5.32819 12.9998 6.34961 13H11.1504C12.1718 12.9998 12.9998 12.1718 13 11.1504V6.34961C12.9998 5.32819 12.1718 4.50021 11.1504 4.5H6.34961ZM20.8496 4.5C19.8282 4.50021 19.0002 5.32819 19 6.34961V11.1504C19.0002 12.1718 19.8282 12.9998 20.8496 13H25.6504C26.6718 12.9998 27.4998 12.1718 27.5 11.1504V6.34961C27.4998 5.32819 26.6718 4.50021 25.6504 4.5H20.8496Z"
    fill="currentColor"
  />
</svg>

<svg xmlns="http://www.w3.org/2000/svg" width="32" height="32" fill="none" data-fui-icon="true" viewBox="0 0 32 32"><path fill="currentColor" d="M11.15 17.5c1.85 0 3.35 1.5 3.35 3.35v4.8C14.5 27.5 13 29 11.15 29h-4.8A3.35 3.35 0 0 1 3 25.65v-4.8C3 19 4.5 17.5 6.35 17.5zm14.5 0C27.5 17.5 29 19 29 20.85v4.8C29 27.5 27.5 29 25.65 29h-4.8a3.35 3.35 0 0 1-3.35-3.35v-4.8c0-1.85 1.5-3.35 3.35-3.35zM6.35 19a1.85 1.85 0 0 0-1.85 1.85v4.8a1.85 1.85 0 0 0 1.85 1.85h4.8A1.85 1.85 0 0 0 13 25.65v-4.8A1.85 1.85 0 0 0 11.15 19zm14.5 0A1.85 1.85 0 0 0 19 20.85v4.8a1.85 1.85 0 0 0 1.85 1.85h4.8a1.85 1.85 0 0 0 1.85-1.85v-4.8A1.85 1.85 0 0 0 25.65 19zm-9.7-16C13 3 14.5 4.5 14.5 6.35v4.8c0 1.85-1.5 3.35-3.35 3.35h-4.8A3.35 3.35 0 0 1 3 11.15v-4.8C3 4.5 4.5 3 6.35 3zm14.5 0C27.5 3 29 4.5 29 6.35v4.8c0 1.85-1.5 3.35-3.35 3.35h-4.8a3.35 3.35 0 0 1-3.35-3.35v-4.8C17.5 4.5 19 3 20.85 3zM6.35 4.5A1.85 1.85 0 0 0 4.5 6.35v4.8A1.85 1.85 0 0 0 6.35 13h4.8A1.85 1.85 0 0 0 13 11.15v-4.8a1.85 1.85 0 0 0-1.85-1.85zm14.5 0A1.85 1.85 0 0 0 19 6.35v4.8A1.85 1.85 0 0 0 20.85 13h4.8a1.85 1.85 0 0 0 1.85-1.85v-4.8a1.85 1.85 0 0 0-1.85-1.85z"/></svg>
